telma/img/buttons/file-form/Exit.svg

<?xml version="1.0" encoding="UTF-8" standalone="no"?>
<!-- Created with Inkscape (http://www.inkscape.org/) -->
<svg
   xmlns:dc="http://purl.org/dc/elements/1.1/"
   xmlns:cc="http://creativecommons.org/ns#"
   xmlns:rdf="http://www.w3.org/1999/02/22-rdf-syntax-ns#"
   xmlns:svg="http://www.w3.org/2000/svg"
   xmlns="http://www.w3.org/2000/svg"
   xmlns:xlink="http://www.w3.org/1999/xlink"
   xmlns:sodipodi="http://sodipodi.sourceforge.net/DTD/sodipodi-0.dtd"
   xmlns:inkscape="http://www.inkscape.org/namespaces/inkscape"
   width="600"
   height="600"
   id="svg2"
   sodipodi:version="0.32"
   inkscape:version="0.46"
   version="1.0"
   sodipodi:docname="exit.svg"
   inkscape:output_extension="org.inkscape.output.svg.inkscape"
   inkscape:export-filename="D:\Documents and Settings\Маша\Рабочий стол\TELMA.V20\Projects\Interfaces\CurveEditor\CurveEditorPanel\images\exit.png"
   inkscape:export-xdpi="4.7978296"
   inkscape:export-ydpi="4.7978296">
  <defs
     id="defs4">
    <linearGradient
       id="linearGradient4711">
      <stop
         style="stop-color:#ffffff;stop-opacity:1;"
         offset="0"
         id="stop4713" />
      <stop
         style="stop-color:#ffffff;stop-opacity:0;"
         offset="1"
         id="stop4715" />
    </linearGradient>
    <linearGradient
       inkscape:collect="always"
       xlink:href="#linearGradient3267"
       id="linearGradient3273"
       x1="123.15675"
       y1="130.17917"
       x2="131.75237"
       y2="121.43824"
       gradientUnits="userSpaceOnUse"
       gradientTransform="matrix(0.1317846,-11.84202,0.8008354,12.17994,21.713097,247.38488)" />
    <linearGradient
       id="linearGradient3854">
      <stop
         style="stop-color:#f4eeac;stop-opacity:1;"
         offset="0"
         id="stop3856" />
      <stop
         style="stop-color:#bbb08d;stop-opacity:0;"
         offset="1"
         id="stop3858" />
    </linearGradient>
    <linearGradient
       id="linearGradient3720">
      <stop
         style="stop-color:#000000;stop-opacity:1;"
         offset="0"
         id="stop3722" />
      <stop
         style="stop-color:#000000;stop-opacity:0;"
         offset="1"
         id="stop3724" />
    </linearGradient>
    <linearGradient
       inkscape:collect="always"
       id="linearGradient3267">
      <stop
         style="stop-color:#ff0000;stop-opacity:1;"
         offset="0"
         id="stop3269" />
      <stop
         style="stop-color:#ff0000;stop-opacity:0;"
         offset="1"
         id="stop3271" />
    </linearGradient>
    <linearGradient
       id="linearGradient3253">
      <stop
         style="stop-color:#ff0000;stop-opacity:1;"
         offset="0"
         id="stop3255" />
      <stop
         style="stop-color:#ff0000;stop-opacity:0;"
         offset="1"
         id="stop3257" />
    </linearGradient>
    <linearGradient
       inkscape:collect="always"
       xlink:href="#linearGradient3253"
       id="linearGradient3261"
       x1="-74.741104"
       y1="-86.035858"
       x2="91.101135"
       y2="-163.68266"
       gradientUnits="userSpaceOnUse" />
    <linearGradient
       id="linearGradient4618">
      <stop
         style="stop-color:#29b63e;stop-opacity:0.74703556;"
         offset="0"
         id="stop4620" />
      <stop
         style="stop-color:#ffffff;stop-opacity:0;"
         offset="1"
         id="stop4622" />
    </linearGradient>
    <linearGradient
       id="linearGradient3176">
      <stop
         id="stop3178"
         offset="0"
         style="stop-color:#ff0000;stop-opacity:1;" />
      <stop
         id="stop3180"
         offset="1"
         style="stop-color:#00d63b;stop-opacity:0;" />
    </linearGradient>
    <linearGradient
       id="linearGradient3170">
      <stop
         style="stop-color:#ff0000;stop-opacity:1;"
         offset="0"
         id="stop3172" />
      <stop
         style="stop-color:#00d63b;stop-opacity:0;"
         offset="1"
         id="stop3174" />
    </linearGradient>
    <linearGradient
       id="linearGradient3164">
      <stop
         id="stop3166"
         offset="0"
         style="stop-color:#ff0000;stop-opacity:1;" />
      <stop
         id="stop3168"
         offset="1"
         style="stop-color:#00d63b;stop-opacity:0;" />
    </linearGradient>
    <linearGradient
       id="linearGradient5422">
      <stop
         style="stop-color:#d30000;stop-opacity:1;"
         offset="0"
         id="stop5424" />
      <stop
         style="stop-color:#ff0000;stop-opacity:0;"
         offset="1"
         id="stop5426" />
    </linearGradient>
    <inkscape:perspective
       sodipodi:type="inkscape:persp3d"
       inkscape:vp_x="0 : 526.18109 : 1"
       inkscape:vp_y="6.1230318e-14 : 1000 : 0"
       inkscape:vp_z="744.09448 : 526.18109 : 1"
       inkscape:persp3d-origin="372.04724 : 350.78739 : 1"
       id="perspective10" />
    <linearGradient
       inkscape:collect="always"
       xlink:href="#linearGradient3253"
       id="linearGradient3454"
       gradientUnits="userSpaceOnUse"
       x1="-74.741104"
       y1="-86.035858"
       x2="91.101135"
       y2="-163.68266" />
    <linearGradient
       inkscape:collect="always"
       xlink:href="#linearGradient3267"
       id="linearGradient3456"
       gradientUnits="userSpaceOnUse"
       gradientTransform="matrix(4.9810849,0.3788437,-5.1235048,0.5090201,259.47826,252.87199)"
       x1="123.15675"
       y1="130.17917"
       x2="131.75237"
       y2="121.43824" />
    <linearGradient
       inkscape:collect="always"
       xlink:href="#linearGradient3267"
       id="linearGradient4705"
       gradientUnits="userSpaceOnUse"
       gradientTransform="matrix(0.1317846,-11.84202,0.8008354,12.17994,21.713097,395.43536)"
       x1="123.15675"
       y1="130.17917"
       x2="131.75237"
       y2="121.43824" />
    <linearGradient
       inkscape:collect="always"
       xlink:href="#linearGradient3267"
       id="linearGradient4709"
       gradientUnits="userSpaceOnUse"
       gradientTransform="matrix(0.1317846,-11.84202,0.8008354,12.17994,187.22494,618.32225)"
       x1="123.15675"
       y1="130.17917"
       x2="131.75237"
       y2="121.43824" />
  </defs>
  <sodipodi:namedview
     id="base"
     pagecolor="#ffffff"
     bordercolor="#666666"
     borderopacity="1.0"
     gridtolerance="10000"
     guidetolerance="10"
     objecttolerance="10"
     inkscape:pageopacity="0.0"
     inkscape:pageshadow="2"
     inkscape:zoom="0.45254834"
     inkscape:cx="-597.24423"
     inkscape:cy="255.22106"
     inkscape:document-units="px"
     inkscape:current-layer="layer1"
     showgrid="false"
     showguides="true"
     inkscape:showpageshadow="false"
     inkscape:window-width="1212"
     inkscape:window-height="956"
     inkscape:window-x="60"
     inkscape:window-y="28"
     showborder="true">
    <inkscape:grid
       type="xygrid"
       visible="true"
       enabled="true"
       id="grid2393" />
  </sodipodi:namedview>
  <metadata
     id="metadata7">
    <rdf:RDF>
      <cc:Work
         rdf:about="">
        <dc:format>image/svg+xml</dc:format>
        <dc:type
           rdf:resource="http://purl.org/dc/dcmitype/StillImage" />
      </cc:Work>
    </rdf:RDF>
  </metadata>
  <g
     inkscape:label="Layer 1"
     inkscape:groupmode="layer"
     id="layer1">
    <rect
       ry="90"
       rx="90"
       y="10.602222"
       x="11.58176"
       height="576.74463"
       width="577.10175"
       id="rect2390"
       style="opacity:1;fill:none;fill-opacity:1;stroke:none;stroke-width:1;stroke-linecap:round;stroke-linejoin:miter;stroke-miterlimit:4;stroke-dasharray:none;stroke-dashoffset:0;stroke-opacity:1"
       inkscape:export-filename="P:\TELMA.V20\telma.v20_10_11\Projects\Interfaces\BaseInterface\CurveEditor\CurveEditorPanel\images\exit.png"
       inkscape:export-xdpi="4.9935446"
       inkscape:export-ydpi="4.9935446" />
    <rect
       style="opacity:1;fill:none;fill-opacity:0.74703556000000004;stroke:none;stroke-width:23.16965866000000000;stroke-linecap:round;stroke-linejoin:miter;stroke-miterlimit:4;stroke-dasharray:none;stroke-dashoffset:0;stroke-opacity:1"
       id="rect5264"
       width="577.10175"
       height="576.74463"
       x="11.581718"
       y="11.612374"
       rx="90"
       ry="90"
       inkscape:export-xdpi="4.8006859"
       inkscape:export-ydpi="4.8006859" />
  </g>
  <g
     inkscape:groupmode="layer"
     id="layer3"
     inkscape:label="Белок"
     sodipodi:insensitive="true" />
  <g
     inkscape:groupmode="layer"
     id="layer2"
     inkscape:label="Линия"
     sodipodi:insensitive="true">
    <rect
       style="opacity:1;fill:#979696;fill-opacity:1;stroke:#000000;stroke-width:10;stroke-linecap:butt;stroke-linejoin:round;stroke-miterlimit:4;stroke-dasharray:none;stroke-dashoffset:0;stroke-opacity:1"
       id="rect4549"
       width="274.29114"
       height="371.68594"
       x="271.83975"
       y="53.021618" />
    <rect
       y="531.17017"
       x="507.96823"
       height="371.83109"
       width="218.57489"
       id="rect4551"
       style="opacity:1;fill:#49bbff;fill-opacity:1;stroke:#000000;stroke-width:11.53274155;stroke-linecap:butt;stroke-linejoin:round;stroke-miterlimit:4;stroke-dasharray:none;stroke-dashoffset:0;stroke-opacity:1"
       transform="matrix(0.7518564,-0.6593269,0,1,0,0)" />
    <path
       style="fill:none;fill-rule:evenodd;stroke:#000000;stroke-width:12;stroke-linecap:round;stroke-linejoin:miter;stroke-miterlimit:4;stroke-dasharray:none;stroke-opacity:1"
       d="M 424.22639,316.89043 L 424.22639,359.09401"
       id="path4569" />
    <path
       sodipodi:nodetypes="cc"
       id="path4703"
       d="M 191.10536,291.777 L 98.7991,292.30165"
       style="fill:#ffffff;fill-opacity:1;fill-rule:evenodd;stroke:url(#linearGradient3273);stroke-width:66.59884644;stroke-linecap:square;stroke-linejoin:miter;stroke-miterlimit:4;stroke-dasharray:none;stroke-opacity:1" />
    <path
       transform="matrix(0.5154329,-1.2142329,1.1008892,0.5088359,421.63791,334.26002)"
       d="M 24.076354,-195.87691 L 13.572705,-122.92136 L 12.53854,-63.176023 L -45.390996,-108.75023 L -96.614894,-139.51851 L -28.181709,-166.89986 L 24.076354,-195.87691 z"
       inkscape:randomized="0"
       inkscape:rounded="0"
       inkscape:flatsided="false"
       sodipodi:arg2="0.28773554"
       sodipodi:arg1="-0.96046964"
       sodipodi:r2="35.012089"
       sodipodi:r1="76.903938"
       sodipodi:cy="-132.85715"
       sodipodi:cx="-20"
       sodipodi:sides="3"
       id="path4701"
       style="opacity:1;fill:#ffffff;fill-opacity:1;stroke:#000000;stroke-width:1;stroke-linecap:round;stroke-miterlimit:4;stroke-dasharray:none;stroke-opacity:1"
       sodipodi:type="star" />
    <path
       sodipodi:type="star"
       style="opacity:1;fill:url(#linearGradient3261);fill-opacity:1;stroke:#000000;stroke-width:1;stroke-linecap:round;stroke-miterlimit:4;stroke-dasharray:none;stroke-opacity:1"
       id="path3487"
       sodipodi:sides="3"
       sodipodi:cx="-20"
       sodipodi:cy="-132.85715"
       sodipodi:r1="76.903938"
       sodipodi:r2="35.012089"
       sodipodi:arg1="-0.96046964"
       sodipodi:arg2="0.28773554"
       inkscape:flatsided="false"
       inkscape:rounded="0"
       inkscape:randomized="0"
       d="M 24.076354,-195.87691 L 13.572705,-122.92136 L 12.53854,-63.176023 L -45.390996,-108.75023 L -96.614894,-139.51851 L -28.181709,-166.89986 L 24.076354,-195.87691 z"
       transform="matrix(0.5154329,-1.2142329,1.1008892,0.5088359,421.63791,334.26002)" />
  </g>
</svg>

<svg xmlns="http://www.w3.org/2000/svg" xmlns:xlink="http://www.w3.org/1999/xlink" width="600" height="600"><defs><linearGradient id="A" x1="123.157" y1="130.179" x2="131.752" y2="121.438" gradientTransform="matrix(0.1317846,-11.84202,0.8008354,12.17994,21.713097,247.38488)" gradientUnits="userSpaceOnUse"><stop offset="0" stop-color="red"/><stop offset="1" stop-color="red" stop-opacity="0"/></linearGradient><linearGradient id="B" x1="-74.741" y1="-86.036" x2="91.101" y2="-163.683" gradientUnits="userSpaceOnUse"><stop offset="0" stop-color="red"/><stop offset="1" stop-color="red" stop-opacity="0"/></linearGradient><path id="C" d="M24.076-195.877l-10.504 72.956-1.034 59.745-57.93-45.574-51.224-30.768 68.433-27.381 52.258-28.977z"/></defs><g stroke="#000"><g stroke-linejoin="round"><path d="M271.84 53.022h274.291v371.686H271.84z" fill="#979696" stroke-width="10"/><path transform="matrix(.751856 -.659327 0 1 0 0)" d="M507.968 531.17h218.575v371.831H507.968z" fill="#49bbff" stroke-width="11.533"/></g><path d="M424.226 316.89v42.204" fill="none" stroke-width="12" stroke-linecap="round"/></g><g fill="#fff"><path d="M191.105 291.777l-92.306.525" fill-rule="evenodd" stroke="url(#A)" stroke-width="66.599" stroke-linecap="square"/><use xlink:href="#C" transform="matrix(.515433 -1.214233 1.100889 .508836 421.63791 334.26002)" stroke="#000"/></g><use xlink:href="#C" transform="matrix(.515433 -1.214233 1.100889 .508836 421.63791 334.26002)" fill="url(#B)" stroke="#000"/></svg>
